**kern
*clefF4
*k[]
*M4/4
=1
*^
2.G 2.c	2C 2E
.	4GG 4D
4G#X 4B	4EE 4E
=2	=2
2.Gn 2.c	2.CC 2.E
4r	4r
*v	*v
=3||
1C 1E 1G 1c
=4
*^
1A-X 1B	2AA-X 2E-X
.	2FF 2D
=5	=5
2.G 2.c	2.CC 2.En
4r	4r
=6||	=6||
*^	*^
2E	2C	4C\	2CC\
.	.	2GG\	.
4B-X	2E-X	.	2CC\
4A-X	.	8AA-X\L	.
.	.	8BB-X\J	.
*	*v	*v	*v
=7	=7
2.C 2.E 2.G	2.CC
4r	4r
!!linebreak:original
=8||	=8||
2A	2AA 2C 2E
4.A	4FF#X 4C#X 4F#X
.	4DD 4D 4Fn
8A	.
=9	=9
2.C 2.E 2.A	2.AAA
4r	4r
*v	*v
==
*-
!!!system-decoration: [(s1
